svg/media/video_line.svg

<?xml version="1.0" encoding="UTF-8"?>
<svg width="24px" height="24px" viewBox="0 0 24 24" version="1.1" xmlns="http://www.w3.org/2000/svg" xmlns:xlink="http://www.w3.org/1999/xlink">
    <title>video_line</title>
    <g id="页面-1" stroke="none" stroke-width="1" fill="none" fill-rule="evenodd">
        <g id="Media" transform="translate(-1296.000000, 0.000000)">
            <g id="video_line" transform="translate(1296.000000, 0.000000)">
                 <path d="M24,0 L24,24 L0,24 L0,0 L24,0 Z M12.5934901,23.257841 L12.5819402,23.2595131 L12.5108777,23.2950439 L12.4918791,23.2987469 L12.4918791,23.2987469 L12.4767152,23.2950439 L12.4056548,23.2595131 C12.3958229,23.2563662 12.3870493,23.2590235 12.3821421,23.2649074 L12.3780323,23.275831 L12.360941,23.7031097 L12.3658947,23.7234994 L12.3769048,23.7357139 L12.4804777,23.8096931 L12.4953491,23.8136134 L12.4953491,23.8136134 L12.5071152,23.8096931 L12.6106902,23.7357139 L12.6232938,23.7196733 L12.6232938,23.7196733 L12.6266527,23.7031097 L12.609561,23.275831 C12.6075724,23.2657013 12.6010112,23.2592993 12.5934901,23.257841 L12.5934901,23.257841 Z M12.8583906,23.1452862 L12.8445485,23.1473072 L12.6598443,23.2396597 L12.6498822,23.2499052 L12.6498822,23.2499052 L12.6471943,23.2611114 L12.6650943,23.6906389 L12.6699349,23.7034178 L12.6699349,23.7034178 L12.678386,23.7104931 L12.8793402,23.8032389 C12.8914285,23.8068999 12.9022333,23.8029875 12.9078286,23.7952264 L12.9118235,23.7811639 L12.8776777,23.1665331 C12.8752882,23.1545897 12.8674102,23.1470016 12.8583906,23.1452862 L12.8583906,23.1452862 Z M12.1430473,23.1473072 C12.1332178,23.1423925 12.1221763,23.1452606 12.1156365,23.1525954 L12.1099173,23.1665331 L12.0757714,23.7811639 C12.0751323,23.7926639 12.0828099,23.8018602 12.0926481,23.8045676 L12.108256,23.8032389 L12.3092106,23.7104931 L12.3186497,23.7024347 L12.3186497,23.7024347 L12.3225043,23.6906389 L12.340401,23.2611114 L12.337245,23.2485176 L12.337245,23.2485176 L12.3277531,23.2396597 L12.1430473,23.1473072 Z" id="MingCute" fill-rule="nonzero"></path>
                <path d="M20,3 C21.0543909,3 21.9181678,3.81587733 21.9945144,4.85073759 L22,5 L22,19 C22,20.0543909 21.18415,20.9181678 20.1492661,20.9945144 L20,21 L4,21 C2.94563773,21 2.08183483,20.18415 2.00548573,19.1492661 L2,19 L2,5 C2,3.94563773 2.81587733,3.08183483 3.85073759,3.00548573 L4,3 L20,3 Z M20,5 L4,5 L4,19 L20,19 L20,5 Z M10.3401,7.63805 L10.8575504,7.86889348 L10.8575504,7.86889348 L11.1960712,8.02822616 L11.1960712,8.02822616 L11.5825514,8.21728108 L11.5825514,8.21728108 L12.013063,8.43639444 L12.013063,8.43639444 L12.4836776,8.68590248 L12.4836776,8.68590248 L12.9904672,8.9661414 C13.0777284,9.01542747 13.1663333,9.066008 13.2562,9.11789 L13.7742856,9.42346743 L13.7742856,9.42346743 L14.2484637,9.71485401 L14.2484637,9.71485401 L14.677056,9.98847112 L14.677056,9.98847112 L15.0583843,10.2407402 L15.0583843,10.2407402 L15.5380856,10.571288 L15.5380856,10.571288 L15.902003,10.8336731 C15.935796,10.8585928 15.96734,10.8820267 15.9966,10.9039 C16.6579,11.3984 16.6608,12.3871 15.9967,12.8836 L15.6744408,13.1191056 L15.6744408,13.1191056 L15.2346104,13.4265488 L15.2346104,13.4265488 L14.8783152,13.6659106 L14.8783152,13.6659106 L14.4731296,13.9288963 L14.4731296,13.9288963 L14.0203992,14.2121664 L14.0203992,14.2121664 L13.5214693,14.5123816 L13.5214693,14.5123816 L12.9874248,14.8206985 L12.9874248,14.8206985 L12.4781584,15.1025544 L12.4781584,15.1025544 L12.006637,15.3529074 L12.006637,15.3529074 L11.5764206,15.5722595 L11.5764206,15.5722595 L11.1910688,15.7611128 L11.1910688,15.7611128 L10.5691987,16.049331 L10.5691987,16.049331 L10.3398,16.1497 L10.3398,16.1497 C9.57694,16.477 8.72176,15.9789 8.62504,15.1583 L8.56657325,14.5938157 L8.56657325,14.5938157 L8.53543872,14.2204376 L8.53543872,14.2204376 L8.49269968,13.5560264 L8.49269968,13.5560264 L8.47013582,13.0484883 L8.47013582,13.0484883 L8.45494461,12.4932445 C8.45315235,12.3969176 8.4517612,12.2987448 8.45081811,12.1987971 L8.44938,11.8937 C8.44938,11.6869133 8.45135902,11.486937 8.45494172,11.2943382 L8.47012548,10.7392416 L8.47012548,10.7392416 L8.4926792,10.2318136 L8.4926792,10.2318136 L8.52035079,9.77545763 L8.52035079,9.77545763 L8.55088815,9.37357704 L8.55088815,9.37357704 L8.62499,8.62954 L8.62499,8.62954 C8.72188,7.80738 9.57864,7.31137 10.3401,7.63805 Z M10.9512364,10.1390647 L10.5151,9.92064 L10.5151,9.92064 L10.486244,10.4084653 L10.486244,10.4084653 L10.4638603,10.9594743 L10.4638603,10.9594743 L10.4511397,11.5687494 C10.450002,11.6748776 10.4494,11.7832286 10.4494,11.8937 L10.4511341,12.2185227 L10.4511341,12.2185227 L10.463821,12.8275589 C10.466828,12.9243493 10.4702373,13.018714 10.4739831,13.1105513 L10.4999679,13.6304324 C10.5047959,13.7117531 10.5098286,13.7903429 10.515,13.8661 L10.9492239,13.6480901 L10.9492239,13.6480901 L11.4363178,13.392184 L11.4363178,13.392184 L11.9712577,13.0977099 C12.0641224,13.0453796 12.1587714,12.9914143 12.2551,12.9358 L12.8059822,12.6101644 L12.8059822,12.6101644 L13.30037,12.3044216 L13.30037,12.3044216 L13.7363321,12.0232315 C13.8040163,11.9786714 13.8691857,11.9353286 13.9318,11.8933 L13.5245411,11.6247834 L13.5245411,11.6247834 L13.0588636,11.3300487 C12.8118306,11.1769735 12.5438143,11.0159714 12.2562,10.8499 L11.9734778,10.6886806 L11.9734778,10.6886806 L11.4392283,10.3949308 L11.4392283,10.3949308 L10.9512364,10.1390647 L10.9512364,10.1390647 Z" id="形状" fill="#09244B"></path>
            </g>
        </g>
    </g>
</svg>

<svg xmlns="http://www.w3.org/2000/svg" width="24" height="24"><g fill="none" fill-rule="evenodd"><path d="M24 0v24H0V0h24ZM12.593 23.258l-.011.002-.071.035-.02.004-.014-.004-.071-.035c-.01-.004-.019-.001-.024.005l-.004.01-.017.428.005.02.01.013.104.074.015.004.012-.004.104-.074.012-.016.004-.017-.017-.427c-.002-.01-.009-.017-.017-.018Zm.265-.113-.013.002-.185.093-.01.01-.003.011.018.43.005.012.008.007.201.093c.012.004.023 0 .029-.008l.004-.014-.034-.614c-.003-.012-.01-.02-.02-.022Zm-.715.002a.023.023 0 0 0-.027.006l-.006.014-.034.614c0 .012.007.02.017.024l.015-.002.201-.093.01-.008.004-.011.017-.43-.003-.012-.01-.01-.184-.092Z"/><path fill="#09244B" d="M20 3a2 2 0 0 1 1.995 1.85L22 5v14a2 2 0 0 1-1.85 1.995L20 21H4a2 2 0 0 1-1.995-1.85L2 19V5a2 2 0 0 1 1.85-1.995L4 3h16Zm0 2H4v14h16V5Zm-9.66 2.638.518.23.338.16.387.19.43.218.47.25.507.28.266.152.518.305.474.292.43.273.38.253.48.33.364.263.095.07a1.234 1.234 0 0 1 0 1.98l-.323.235-.44.308-.356.239-.405.263-.453.283-.499.3-.534.309-.509.282-.471.25-.43.22-.386.188-.622.288-.23.1a1.234 1.234 0 0 1-1.714-.99l-.058-.565-.032-.374-.042-.664-.023-.508-.015-.555a32.12 32.12 0 0 1-.004-.294l-.002-.305c0-.207.002-.407.006-.6l.015-.555.023-.507.027-.457.03-.401.075-.744a1.235 1.235 0 0 1 1.715-.992Zm.611 2.501-.436-.218-.029.487-.022.551-.013.61-.002.325.002.325.013.609.01.283.026.52.015.235.434-.218.487-.256.535-.294.284-.162.551-.326.494-.306.436-.28.196-.13-.407-.27-.466-.294a30.094 30.094 0 0 0-.803-.48l-.283-.161-.534-.294-.488-.256Z"/></g></svg>
